logos/adobe-after-effects.svg

<?xml version="1.0" encoding="UTF-8"?>
<svg width="256px" height="250px" viewBox="0 0 256 250" version="1.1" xmlns="http://www.w3.org/2000/svg" preserveAspectRatio="xMidYMid">
    <title>Adobe After Effects</title>
    <g>
        <rect fill="#00005B" x="0" y="0" width="256" height="249.6" rx="42.5"></rect>
        <path d="M102.842667,149.333333 L63.171872,149.333333 L55.1005227,174.4544 C54.8864633,175.345282 54.102769,175.973588 53.2000341,176.001395 L32.94688,176 C31.8010453,176 31.4003342,175.370311 31.7447467,174.110933 L66.0916267,75.6013013 L66.4349772,74.5664099 C66.4731378,74.449529 66.5113006,74.3315597 66.5494644,74.2120443 L66.7784486,73.4727403 C66.8929363,73.0901523 67.0074098,72.6854151 67.1218347,72.246176 C67.5716045,69.9550021 67.8016257,67.6261238 67.808768,65.291232 C67.7616209,64.9601635 67.8730047,64.6262074 68.1094464,64.3897237 C68.3458881,64.1532401 68.6798245,64.041797 69.0109013,64.0888853 L96.316672,64.0888853 C97.1161458,64.0888853 97.5741298,64.3751716 97.690624,64.947744 L136.673963,174.282549 C137.01718,175.428384 136.673778,176.000868 135.643755,176 L113.318229,176 C112.525013,176.088051 111.789786,175.57337 111.601045,174.79792 L102.842667,149.333333 Z M69.3546667,128.151819 L96.4885333,128.151819 L96.1024487,126.874894 L96.1024487,126.874894 L95.4807114,124.852684 L95.4807114,124.852684 L94.5721893,121.957001 L94.5721893,121.957001 L92.8274099,116.490007 L92.8274099,116.490007 L91.164576,111.235936 L91.164576,111.235936 L88.073376,101.447136 L88.073376,101.447136 C87.1903406,98.6504823 86.3701871,95.9378175 85.6129156,93.3091416 L84.7348015,90.2132727 L84.7348015,90.2132727 L83.7869734,86.8203358 L83.7869734,86.8203358 L82.9212907,83.672896 L82.9212907,83.672896 L82.7494187,83.672896 C81.8904855,87.7957243 80.8440036,91.8769607 79.6133075,95.9039017 L78.4538057,99.6264755 L78.4538057,99.6264755 L75.6636251,108.626725 L75.6636251,108.626725 L74.248896,113.210901 C73.9933741,114.039031 73.73855,114.857633 73.4844237,115.666707 L72.7241383,118.065348 L72.7241383,118.065348 L71.9680398,120.406824 L71.9680398,120.406824 L71.2161281,122.691136 L71.2161281,122.691136 L70.4684034,124.918282 C70.0955877,126.017565 69.7243422,127.09541 69.3546667,128.151819 Z M199.872917,139.555552 L166.041664,139.555552 C166.455962,142.902937 167.567552,146.126256 169.304683,149.017451 C171.225177,151.880359 173.941238,154.118907 177.118229,155.457291 C181.423953,157.3205 186.080846,158.233262 190.771349,158.133333 C194.492602,158.061946 198.199823,157.654913 201.847915,156.917184 C205.110907,156.476718 208.308633,155.643132 211.371403,154.434592 C211.942752,153.978603 212.230251,154.262976 212.230251,155.293451 L212.230251,171.608032 C212.25858,172.052541 212.169677,172.496695 211.972437,172.896053 C211.775889,173.208218 211.511753,173.472264 211.19952,173.668704 C207.802248,175.173528 204.226826,176.238657 200.559893,176.838283 C195.578408,177.77396 190.51534,178.205479 185.44736,178.126304 C177.570722,178.126304 170.931531,176.944407 165.529788,174.580614 L165.010901,174.348171 C159.817614,172.060351 155.230751,168.590693 151.616117,164.215904 C148.239622,160.093671 145.728043,155.333557 144.231221,150.219552 C142.749171,145.172 141.997444,139.938254 141.998517,134.677621 C141.983097,128.933556 142.881667,123.223584 144.660907,117.762005 C146.374313,112.434409 149.08418,107.480793 152.6464,103.164587 C156.159846,98.8988222 160.553488,95.4425443 165.526603,93.03232 C170.563061,90.571648 176.517227,89.6889173 183.386496,89.6889173 C189.083324,89.5449108 194.741816,90.6589506 199.958901,92.95168 C204.345742,94.8226862 208.207687,97.739456 211.207339,101.447168 C214.020845,105.077896 216.171846,109.176457 217.561472,113.554464 C218.914541,117.77344 219.609671,122.175662 219.622411,126.606283 C219.622411,129.125813 219.536473,131.41557 219.364597,133.475552 L219.212228,135.23977 L219.212228,135.23977 L219.051288,136.91417 L219.051288,136.91417 L218.957269,137.762157 C218.949877,137.82388 218.942595,137.883367 218.935424,137.940619 C218.843098,138.724331 218.178721,139.314835 217.389589,139.314571 L216.919028,139.324873 L216.919028,139.324873 L216.331717,139.35578 L216.331717,139.35578 L215.875315,139.387831 L215.875315,139.387831 L214.806843,139.479407 L214.806843,139.479407 L213.86928,139.572128 C213.61375,139.59853 213.348758,139.62358 213.074302,139.647278 L212.222544,139.714315 L212.222544,139.714315 L211.314006,139.77324 L211.314006,139.77324 L210.348689,139.824053 L210.348689,139.824053 L209.326593,139.866754 C209.151512,139.873195 208.974065,139.879297 208.794252,139.885062 L207.686987,139.915595 L207.686987,139.915595 C206.592089,139.941764 205.469705,139.873552 204.319303,139.789684 L202.572619,139.661981 C201.688704,139.602099 200.788878,139.555552 199.872917,139.555552 Z M166.041664,123.911115 L189.427998,123.910054 L189.427998,123.910054 L191.419677,123.898117 L191.419677,123.898117 L192.774422,123.879019 L192.774422,123.879019 L193.651298,123.859125 L193.651298,123.859125 L194.634891,123.825173 L194.634891,123.825173 C195.51585,123.737184 196.366413,123.4553 197.125557,122.999744 L197.125557,121.969269 C197.090932,120.626184 196.85949,119.295441 196.438624,118.019531 C194.534006,111.997297 188.839885,107.990324 182.528224,108.230731 C176.622839,107.873819 171.064512,111.040282 168.359989,116.30208 C167.183524,118.697435 166.400716,121.26671 166.041664,123.911115 Z" fill="#9999FF"></path>
    </g>
</svg>

<?xml version="1.0" encoding="UTF-8"?>
<svg width="256" height="250" version="1.1" xmlns="http://www.w3.org/2000/svg" preserveAspectRatio="xMidYMid">
	<rect fill="#00005B" x="0" y="0" width="256" height="249.6" rx="42.5"/>
	<path d="M102.843 149.333H63.172L55.1 174.454a2.02 2.02 0 0 1-1.901 1.547L32.947 176c-1.146 0-1.547-.63-1.202-1.89l34.347-98.509.343-1.035.114-.354.23-.74c.114-.382.228-.787.343-1.226.45-2.291.68-4.62.687-6.955a1.063 1.063 0 0 1 1.202-1.202h27.306c.8 0 1.257.286 1.374.859l38.983 109.335c.343 1.145 0 1.718-1.03 1.717h-22.326a1.587 1.587 0 0 1-1.717-1.202l-8.758-25.465Zm-33.488-21.181h27.134l-.387-1.277-.621-2.022-.909-2.896-1.745-5.467-1.662-5.254-3.092-9.789a335.624 335.624 0 0 1-2.46-8.138l-.878-3.096-.948-3.393-.866-3.147h-.172a138.494 138.494 0 0 1-3.136 12.23l-1.16 3.723-2.79 9-1.414 4.585c-.256.828-.51 1.647-.765 2.456l-.76 2.398-.756 2.342-.752 2.284-.748 2.227c-.372 1.1-.744 2.177-1.113 3.234Zm130.518 11.404h-33.831a24.126 24.126 0 0 0 3.263 9.461 17.669 17.669 0 0 0 7.813 6.44 32.629 32.629 0 0 0 13.653 2.676 61.87 61.87 0 0 0 11.077-1.216 40.825 40.825 0 0 0 9.523-2.482c.572-.456.86-.172.86.858v16.315c.028.445-.061.889-.259 1.288-.196.312-.46.576-.772.773a43.673 43.673 0 0 1-10.64 3.17 75.478 75.478 0 0 1-15.113 1.287c-7.876 0-14.515-1.182-19.917-3.545l-.52-.233a36.423 36.423 0 0 1-13.394-10.132 39.677 39.677 0 0 1-7.385-13.996A55.127 55.127 0 0 1 142 134.678a54.141 54.141 0 0 1 2.662-16.916 44.186 44.186 0 0 1 7.985-14.597 38.361 38.361 0 0 1 12.88-10.133c5.037-2.46 10.991-3.343 17.86-3.343a38.757 38.757 0 0 1 16.573 3.263 29.208 29.208 0 0 1 11.248 8.495 39.057 39.057 0 0 1 6.354 12.107 43.145 43.145 0 0 1 2.061 13.052c0 2.52-.086 4.81-.257 6.87l-.153 1.764-.16 1.674-.095.848a33.26 33.26 0 0 1-.022.179 1.556 1.556 0 0 1-1.545 1.374l-.471.01-.587.03-.457.033-1.068.091-.938.093c-.255.027-.52.052-.795.075l-.851.067-.909.06-.965.05-1.022.043-.533.018-1.107.03c-1.095.027-2.217-.041-3.368-.125l-1.746-.128a39.834 39.834 0 0 0-2.7-.106Zm-33.831-15.645h23.386l1.992-.013 1.354-.019.877-.02.984-.034a6 6 0 0 0 2.49-.825v-1.03a13.74 13.74 0 0 0-.686-3.95 14.03 14.03 0 0 0-13.91-9.79 14.918 14.918 0 0 0-14.169 8.072 24.842 24.842 0 0 0-2.318 7.61Z" fill="#99F"/>
</svg>
